22x22/actions/gtg-tag-new.svg

<svg xmlns="http://www.w3.org/2000/svg" viewBox="0 0 22 22"><defs id="defs3051"><style type="text/css" id="current-color-scheme"></style></defs><path style="fill:currentColor;fill-opacity:1;stroke:none;color:#5d656b" d="M9 3 3 5l2 6 8 4v-2h3.5L19 8 9 3zM3 5v6l8 8 2-2v-1.09L4 11 3 5zm3.5 0C7.331 5 8 5.669 8 6.5S7.331 8 6.5 8 5 7.331 5 6.5 5.669 5 6.5 5zm9.5 9v2h-2v1h2v2h1v-2h2v-1h-2v-2h-1z"/></svg>

<svg xmlns="http://www.w3.org/2000/svg" viewBox="0 0 22 22">
  <defs id="defs3051">
    <style type="text/css" id="current-color-scheme">
      .ColorScheme-Text {
        color:#5d656b;
      }
      .ColorScheme-Highlight {
        color:#3daee9;
      }
      </style>
  </defs>
 <path 
     style="fill:currentColor;fill-opacity:1;stroke:none" 
     d="M 9 3 L 3 5 L 5 11 L 13 15 L 13 13 L 16.5 13 L 19 8 L 9 3 z M 3 5 L 3 11 L 11 19 L 13 17 L 13 15.910156 L 4 11 L 3 5 z M 6.5 5 C 7.331 5 8 5.669 8 6.5 C 8 7.331 7.331 8 6.5 8 C 5.669 8 5 7.331 5 6.5 C 5 5.669 5.669 5 6.5 5 z M 16 14 L 16 16 L 14 16 L 14 17 L 16 17 L 16 19 L 17 19 L 17 17 L 19 17 L 19 16 L 17 16 L 17 14 L 16 14 z "
     class="ColorScheme-Text"
     />
</svg>
